icons/Chevron-Left(LeftAligned).svg

<svg width="24" height="24" viewBox="0 0 24 24" fill="none" xmlns="http://www.w3.org/2000/svg">
<path fill-rule="evenodd" clip-rule="evenodd" d="M13.196 19.285L6.273 12.352L13.196 5.419C13.2447 5.37233 13.2835 5.31629 13.3099 5.25425C13.3364 5.19221 13.3501 5.12545 13.3501 5.058C13.3501 4.99055 13.3364 4.92379 13.3099 4.86175C13.2835 4.79971 13.2447 4.74367 13.196 4.697L11.009 2.497C10.9126 2.40257 10.783 2.34969 10.648 2.34969C10.513 2.34969 10.3834 2.40257 10.287 2.497L2.987 9.797L0.799999 11.984C0.705574 12.0804 0.652693 12.21 0.652693 12.345C0.652693 12.48 0.705574 12.6096 0.799999 12.706L2.987 14.893L10.26 22.193C10.3564 22.2874 10.486 22.3403 10.621 22.3403C10.756 22.3403 10.8856 22.2874 10.982 22.193L13.2 19.993C13.2487 19.9463 13.2875 19.8903 13.3139 19.8282C13.3404 19.7662 13.3541 19.6995 13.3541 19.632C13.3541 19.5645 13.3404 19.4978 13.3139 19.4358C13.2875 19.3737 13.2487 19.3177 13.2 19.271L13.196 19.285Z" fill="black"/>
</svg>

<svg xmlns="http://www.w3.org/2000/svg" viewBox="0 0 24 24">
  <path d="M13.196 19.285l-6.923-6.933 6.923-6.933a.499.499 0 000-.722l-2.187-2.2a.516.516 0 00-.722 0l-7.3 7.3L.8 11.984a.516.516 0 000 .722l2.187 2.187 7.273 7.3a.516.516 0 00.722 0l2.218-2.2a.499.499 0 000-.722l-.004.014z"/>
</svg>
